X:1
T:Title
%%score { 1 | 2 }
L:1/8
M:9/4
K:C
V:1 treble nm="Grand Piano"
V:2 bass 
V:1
 z6 z6[Q:1/4=192] [EG]2 [_E^F]2 [=EG]2 | [CE]6 [EG]6 [Ec]2 [FB]2 [Gc]2 | %2
 [FA]12 [^FA]2 [GB]2 [Ac]2 | [^Fd]6 [FA]6 [FA]2 [GB]2 [Ac]2 | B12 d2 B2 G2 | %5
 [Ec]6 [CE]6 [^CEG]2 [CEA]2 [A,CE]2 | [A,DF]12 [G,B,F]2 [G,CF]2 [G,DF]2 | %7
 [G,CE]6 [CEG]6 [B,DG]2 [CDA]2 [DFB]2 | %8
[M:21/8] [CEc]3- [CEc]6 [Ec]3- [Ec] [Ec]2 [Fc]3- [Fc] [Fc]2 |[M:6/4] [Ec]12 |] %10
V:2
 z6 z6 [C,C]2 [C,C]2 [C,C]2 | [C,G,]6 [C,C]6 [C,G,]2 [D,G,]2 [E,C]2 | %2
 [F,C]12 [D,D]2 [D,D]2 [D,D]2 | [D,A,]6 [D,D]6 [D,D]2 [D,D]2 [D,D]2 | %4
 [G,DG]12 [G,B,F]2 [G,DF]2 [G,B,F]2 | [C,G,]6 C,6 A,,2 A,,2 A,,2 | D,12 G,,2 A,,2 B,,2 | %7
 C,6 C,6 G,2 G,2 G,2 |[M:21/8] C,3- C,6 [C,G,]3- [C,G,] [C,G,]2 [F,A,]3- [F,A,] [F,A,]2 | %9
[M:6/4] [C,G,]12 |] %10

